X: 36572
T: Shady Groves Of Piedmont, The
R: jig
M: 6/8
K: Dmixolydian
d2e|:faf efe|ded cAG|EGG EGE|DED GFG|
A2B cAG|A2B cde|fed cAG|Add d2e:|
fdd Add|fdf agf|gee cAc|ece gfe|
fef gfg|agf gfe|fed cAG|Add d2e:|

